X:1
T:Danse de l'Ours
C:Polka traditionnelle, abc file by Bernard Loffet
L:1/8
Q:380
M:2/2
K:C
|:[^c2A,2][A2A,2][A2A,2]A,2|[^c2A,2][A2A,2][A2A,2]A,B|[B2F,2][B2F,2][B2F,2][B2F,2]|[B2G,2][B2G,2][B2G,2][B2G,2]|[^c2A,2][A2A,2][c2A,2][A2A,2]|[^c2A,2][A2A,2][A2A,2]A,B| \
[B2F,2][B2F,2][BG,]A[G2G,2]|[A2A,2]A,2[A2A,2]A,2:|:[A2A,2][c2A,2][A2A,2][c2A,2]|[B2G,2][G2G,2][G2G,2]G,2|[A2A,2][c2A,2][A2A,2][c2A,2]|[B2G,2]G,2G,2[BG,]B| \
[^c2A,2][c2A,2][B2G,2][B2G,2]|[c2F,2][c2F,2][B2E,2]E,2|[AA,]B[c2A,2][B2G,2][G2G,2]|[A2A,2]A,2[A2A,2]A,2:| \
Z:Created with TablEdit http://www.tabledit.com/ by Bernard Loffet
